**kern	**kern
*staff2	*staff1
*clefF4	*clefG2
*k[b-e-]	*k[b-e-]
*M4/4	*M4/4
=99	=99
2r	2BB-
2r	[2D
=100	=100
*^	*
2F	8DL]	1r
.	16CL	.
.	16DJJ	.
.	8E-'L	.
.	8D'J	.
[2e-	8C'L	.
.	8BB-'	.
.	8AA'	.
.	8GG'J	.
=101	=101	=101
*	*	*^
4e-]	4FF	1r	2cc
8d'L	4r	.	.
8c'J	.	.	.
8B-'L	2r	.	[2ee-
8A'	.	.	.
8G'	.	.	.
8F'J	.	.	.
*v	*v	*	*
=102	=102	=102
4B-	2ff	4ee-]
4r	.	8dd'L
.	.	8cc'J
2r	[2bb-	8cc-'L
.	.	8b-'
.	.	8a'
.	.	8a-'J
*	*v	*v
=103	=103
1e- 1g	4gg 4bb-]
.	(8ff#L 8aa
.	8ggJ 8bb-
.	8aaL 8ccc
.	8gg) 8bb-
.	8ff' 8aa'
.	8ee-'J 8gg'
=104	=104
1d 1f	8dd'L 8ff'
.	8ee-' 8gg'
.	8ff' 8aa'
.	8gg'J 8bb-'
.	8aa'L 8ccc'
.	8bb-' 8ddd'
.	8ccc' 8eee-'
.	[8dddJ [8fff
=105	=105
4A' 4f'	8ddd] 8fff]
.	4ccc 4eee-
4B-' 4f'	.
.	4bb- 4ddd
4F' 4f'	.
.	4aa 4ccc
4B-' 4f'	.
.	8bb- 8ddd
=106	=106
4F 4f	8aa'L 8ccc'
.	8aa'
4r	8ff'
.	8cc'J
2r	8a'L
.	8f'
.	8c'
.	8A'J
=	=
*-	*-
